icons/svg/steering.svg

<svg xmlns="http://www.w3.org/2000/svg" version="1.1" baseProfile="full" width="24" height="24" viewBox="0 0 24.00 24.00" xml:space="preserve"><path fill="#000" fill-opacity="1" stroke-width="1.333" stroke-linejoin="miter" d="M12 2C6.5 2 2 6.5 2 12s4.5 10 10 10 10-4.5 10-10S17.5 2 12 2zm0 2c4.1 0 7.5 3.1 8 7h-3c-.5-1.1-2.6-2-5-2s-4.5.9-5 2H4c.5-3.9 3.9-7 8-7zm-8 9h3c.2 1.3 1.2 3.6 4 4v3c-3.6-.4-6.6-3.4-7-7zm9 7v-3c2.8-.4 3.7-2.7 4-4h3c-.4 3.6-3.4 6.6-7 7z"/></svg>

﻿<?xml version="1.0" encoding="utf-8"?>
<!DOCTYPE svg PUBLIC "-//W3C//DTD SVG 1.1//EN" "http://www.w3.org/Graphics/SVG/1.1/DTD/svg11.dtd">
<svg xmlns="http://www.w3.org/2000/svg" xmlns:xlink="http://www.w3.org/1999/xlink" version="1.1" baseProfile="full" width="24" height="24" viewBox="0 0 24.00 24.00" enable-background="new 0 0 24.00 24.00" xml:space="preserve">
	<path fill="#000000" fill-opacity="1" stroke-width="1.33333" stroke-linejoin="miter" d="M 12,2C 6.5,2 2,6.5 2,12C 2,17.5 6.5,22 12,22C 17.5,22 22,17.5 22,12C 22,6.5 17.5,2 12,2 Z M 12,4C 16.1,4 19.5,7.1 20,11L 17,11C 16.5,9.9 14.4,9 12,9C 9.6,9 7.5,9.9 7,11L 4,11C 4.5,7.1 7.9,4 12,4 Z M 4,13L 7,13C 7.2,14.3 8.2,16.6 11,17L 11,20C 7.4,19.6 4.4,16.6 4,13 Z M 13,20L 13,17C 15.8,16.6 16.7,14.3 17,13L 20,13C 19.6,16.6 16.6,19.6 13,20 Z "/>
</svg>
